X:1
T:Charming Molley
T:Charming Molly [3]
M:C|
L:1/8
S:William Vickers' music manuscript collection [http://www.asaplive.com/archive/show_images.asp?id=R0309103&image=1]
N:Northumbria, 1770
K:F
FGFA cdcA|GAGB d2f2|gbgf dcfd|cAGA F/F/F F2:|
|:cdca gage|cdcb afge|deda gfge|dcBd c/c/c c2|
FGFA cdcA|GAGB d2f2|gbgf dcfd|cAGA F/F/F F2:||

